material/.icons/material/lifebuoy.svg

<svg xmlns="http://www.w3.org/2000/svg" viewBox="0 0 24 24"><path d="M19.79 15.41c.95-2.17.95-4.66 0-6.82l-2.74 1.24c.6 1.38.6 2.95.01 4.34l2.73 1.24m-4.37-11.2a8.54 8.54 0 00-6.83 0l1.24 2.73c1.39-.59 2.96-.59 4.35.01l1.24-2.74M4.21 8.58a8.564 8.564 0 000 6.84l2.74-1.25c-.6-1.38-.6-2.96 0-4.35L4.21 8.58m4.38 11.21a8.5 8.5 0 006.83-.01l-1.24-2.73a5.5 5.5 0 01-4.34.01l-1.25 2.73M12 2a10 10 0 0110 10 10 10 0 01-10 10A10 10 0 012 12 10 10 0 0112 2m0 6a4 4 0 00-4 4 4 4 0 004 4 4 4 0 004-4 4 4 0 00-4-4z"/></svg>

<?xml version="1.0" encoding="UTF-8"?><!DOCTYPE svg PUBLIC "-//W3C//DTD SVG 1.1//EN" "http://www.w3.org/Graphics/SVG/1.1/DTD/svg11.dtd"><svg xmlns="http://www.w3.org/2000/svg" xmlns:xlink="http://www.w3.org/1999/xlink" version="1.1" id="mdi-lifebuoy" width="24" height="24" viewBox="0 0 24 24"><path d="M19.79,15.41C20.74,13.24 20.74,10.75 19.79,8.59L17.05,9.83C17.65,11.21 17.65,12.78 17.06,14.17L19.79,15.41M15.42,4.21C13.25,3.26 10.76,3.26 8.59,4.21L9.83,6.94C11.22,6.35 12.79,6.35 14.18,6.95L15.42,4.21M4.21,8.58C3.26,10.76 3.26,13.24 4.21,15.42L6.95,14.17C6.35,12.79 6.35,11.21 6.95,9.82L4.21,8.58M8.59,19.79C10.76,20.74 13.25,20.74 15.42,19.78L14.18,17.05C12.8,17.65 11.22,17.65 9.84,17.06L8.59,19.79M12,2A10,10 0 0,1 22,12A10,10 0 0,1 12,22A10,10 0 0,1 2,12A10,10 0 0,1 12,2M12,8A4,4 0 0,0 8,12A4,4 0 0,0 12,16A4,4 0 0,0 16,12A4,4 0 0,0 12,8Z" /></svg>
